assets/img/form-img-2.svg

<svg width="66" height="66" viewBox="0 0 66 66" fill="none" xmlns="http://www.w3.org/2000/svg">
<circle cx="33" cy="33" r="33" fill="#FF7D34"/>
<g clip-path="url(#clip0_1_849)">
<path d="M27.0596 46.6856C26.3686 48.4665 25.6918 50.2116 25.0141 51.9574C24.3307 53.7175 23.643 55.4767 22.967 57.2393C22.6999 57.9345 23.1423 58.542 23.8283 58.4435C24.1846 58.3918 24.3841 58.1606 24.5076 57.841C24.7671 57.1675 25.0392 56.4982 25.2845 55.8197C25.3697 55.5852 25.4907 55.5109 25.7369 55.5109C31.3826 55.5176 37.0283 55.5176 42.674 55.5109C42.9243 55.5109 43.042 55.5894 43.1271 55.8231C43.3733 56.5015 43.6404 57.1734 43.9091 57.8427C44.1161 58.3576 44.5442 58.5729 44.9965 58.4085C45.4647 58.2382 45.6458 57.7801 45.4355 57.2334C44.1336 53.8661 42.8267 50.5003 41.5215 47.1338C41.4622 46.9819 41.4096 46.8275 41.3904 46.7757C42.2208 46.2533 43.0654 45.8369 43.7722 45.2544C45.4655 43.859 46.3084 42.0072 46.3159 39.8131C46.3326 34.9878 46.3652 30.1616 46.3051 25.3371C46.2675 22.3202 44.762 20.1637 42.0673 18.8268C41.8361 18.7116 41.6441 18.7267 41.4046 18.8318C40.4891 19.2357 39.6504 19.0722 38.876 18.4488C38.7199 18.3236 38.4954 18.2418 38.2943 18.2243C37.8937 18.19 37.4889 18.2126 37.085 18.2142C36.4716 18.2176 35.9167 18.2092 35.3558 18.6724C34.5605 19.3284 33.3905 19.1373 32.5835 18.4588C32.4232 18.3244 32.1779 18.2343 31.9676 18.2251C31.3016 18.1959 30.6323 18.2009 29.9663 18.2234C29.7936 18.2293 29.5925 18.3094 29.4581 18.4212C28.6661 19.078 27.8124 19.2265 26.8527 18.8326C26.6857 18.7642 26.4362 18.7492 26.2802 18.8235C23.5954 20.1053 22.0548 22.2351 22.0031 25.2111C21.9171 30.1324 21.9614 35.0562 21.9864 39.9784C22.0006 42.8392 23.8883 45.4705 26.5814 46.502C26.7233 46.5563 26.8652 46.6105 27.0613 46.6856H27.0596ZM33.8562 32.8296C30.8384 32.8296 27.8207 32.8313 24.803 32.828C23.9601 32.8271 23.4519 32.3197 23.4469 31.481C23.441 30.5355 23.4427 29.5899 23.4469 28.6444C23.4577 26.0506 25.4214 24.0227 28.0244 24.0018C31.89 23.9709 35.7564 23.9709 39.6229 24.0018C42.2191 24.0227 44.1745 26.049 44.1937 28.6536C44.2004 29.5432 44.1954 30.4337 44.1945 31.3241C44.1937 32.3648 43.7338 32.8296 42.7015 32.8296C39.7531 32.8296 36.8054 32.8296 33.857 32.8296H33.8562ZM26.0557 53.8485C26.427 52.8955 26.7717 51.9908 27.1397 51.0962C27.1748 51.0119 27.3576 50.9443 27.4719 50.9435C31.9601 50.936 36.4483 50.9351 40.9365 50.9485C41.0675 50.9485 41.2636 51.0887 41.317 51.2114C41.5874 51.8348 41.8219 52.4732 42.0664 53.1074C42.1574 53.3436 42.24 53.5823 42.336 53.8485H26.0548H26.0557ZM27.8399 49.2619C28.1045 48.575 28.364 47.9483 28.5827 47.3082C28.6703 47.052 28.7863 46.9802 29.0525 46.981C32.3732 46.9919 35.6938 46.9877 39.0153 46.9877C39.2482 46.9877 39.481 46.9877 39.6963 46.9877C39.9901 47.7538 40.2722 48.4891 40.5684 49.261H27.8399V49.2619ZM27.87 43.6028C26.2343 43.6086 24.9173 42.3001 24.9198 40.6719C24.9223 39.0637 26.2301 37.7501 27.8349 37.7435C29.4414 37.7368 30.7692 39.0362 30.7917 40.6377C30.8142 42.2575 29.494 43.597 27.87 43.6028ZM37.6308 40.6944C37.6291 39.0545 38.931 37.7426 40.5592 37.7435C42.1624 37.7435 43.486 39.0595 43.4927 40.6577C43.4993 42.2842 42.1833 43.6028 40.5542 43.6028C38.936 43.6028 37.6325 42.3059 37.6308 40.6944Z" fill="white"/>
<path d="M52.9338 31.3208C52.9338 27.5795 52.9196 23.8374 52.9447 20.0962C52.9505 19.2658 52.7803 18.5013 52.4581 17.7536C51.102 14.6057 48.7519 12.4267 45.7425 10.9028C43.4475 9.74112 40.9898 9.11604 38.4503 8.80726C34.9068 8.37663 31.3708 8.43505 27.8632 9.13106C24.4065 9.81706 21.2461 11.1365 18.6765 13.6359C17.2077 15.0647 16.1053 16.7338 15.5044 18.7066C15.4168 18.9946 15.3676 19.3058 15.3676 19.6063C15.3601 27.4368 15.3617 35.2674 15.3626 43.0979C15.3626 43.2231 15.3584 43.3491 15.3742 43.4726C15.4235 43.8498 15.7189 44.1294 16.0961 44.167C16.475 44.2045 16.8347 43.9967 16.9457 43.6379C17.0016 43.4568 17.0125 43.2557 17.0125 43.0637C17.0158 35.3166 17.0141 27.5695 17.0158 19.8224C17.0158 18.8327 17.5007 18.0031 17.9764 17.1928C19.5628 14.4939 21.978 12.8106 24.8455 11.709C27.3642 10.7417 29.9947 10.332 32.6744 10.2277C36.1703 10.0916 39.6228 10.3662 42.9552 11.5287C45.821 12.5277 48.2804 14.1 49.9979 16.672C50.3125 17.1435 50.5754 17.6534 50.8283 18.1625C51.1596 18.8293 51.3006 19.5295 51.2981 20.2914C51.2789 27.8574 51.2856 35.4243 51.2881 42.9903C51.2881 43.1972 51.2914 43.4117 51.344 43.6087C51.4433 43.9834 51.8205 44.2087 52.2145 44.1661C52.5892 44.1252 52.8846 43.8382 52.9238 43.4618C52.9397 43.3099 52.933 43.1563 52.933 43.0036C52.933 39.1088 52.933 35.2148 52.933 31.32L52.9338 31.3208Z" fill="white"/>
<path d="M41.9288 16.6636C41.9105 15.8141 41.2437 15.1856 40.3858 15.2107C39.5671 15.2349 38.9403 15.9109 38.9654 16.7454C38.9896 17.5633 39.6831 18.2201 40.4884 18.1892C41.3138 18.1575 41.9464 17.4882 41.9288 16.6636Z" fill="white"/>
<path d="M34.1362 15.2107C33.3125 15.2157 32.6565 15.875 32.6565 16.697C32.6565 17.5065 33.3334 18.1867 34.1429 18.1917C34.9682 18.1967 35.6559 17.4982 35.6409 16.6703C35.6267 15.8475 34.9649 15.2065 34.1362 15.2107Z" fill="white"/>
<path d="M26.3715 16.6829C26.364 17.5091 27.0108 18.1776 27.8295 18.1901C28.6398 18.2018 29.3225 17.5408 29.34 16.7263C29.3575 15.8859 28.6941 15.2091 27.8537 15.21C27.0216 15.21 26.379 15.8492 26.3715 16.6829Z" fill="white"/>
<path d="M25.7878 40.6969C25.7961 41.8402 26.7191 42.7524 27.8625 42.7482C29.0025 42.744 29.9205 41.8185 29.918 40.6752C29.9155 39.5152 28.9699 38.5788 27.8199 38.5972C26.6816 38.6155 25.7794 39.5477 25.7878 40.6961V40.6969Z" fill="white"/>
<path d="M38.4871 40.6845C38.4905 41.8261 39.4126 42.7466 40.5543 42.7483C41.6868 42.75 42.6257 41.8203 42.6357 40.6878C42.6457 39.5486 41.6793 38.5864 40.5368 38.5973C39.401 38.6081 38.4838 39.5428 38.4871 40.6845Z" fill="white"/>
</g>
<defs>
<clipPath id="clip0_1_849">
<rect width="37.5838" height="49.9267" fill="white" transform="matrix(-1 0 0 1 52.9458 8.53442)"/>
</clipPath>
</defs>
</svg>

<?xml version="1.0"?>
<svg width="66" height="66" xmlns="http://www.w3.org/2000/svg" xmlns:svg="http://www.w3.org/2000/svg">
 <defs>
  <clipPath id="clip0_1_849">
   <rect fill="white" height="49.93" id="svg_1" transform="matrix(-1 0 0 1 52.9458 8.53442)" width="37.58"/>
  </clipPath>
 </defs>
 <g class="layer">
  <title>Layer 1</title>
  <circle cx="33" cy="33" fill="#6d9bc6" id="svg_2" r="33"/>
  <g clip-path="url(#clip0_1_849)" id="svg_3">
   <path d="m27.06,46.69c-0.69,1.78 -1.37,3.52 -2.05,5.27c-0.68,1.76 -1.37,3.52 -2.04,5.28c-0.27,0.69 0.17,1.3 0.86,1.2c0.35,-0.05 0.55,-0.28 0.68,-0.6c0.26,-0.67 0.53,-1.34 0.77,-2.02c0.09,-0.23 0.21,-0.31 0.46,-0.31c5.64,0.01 11.29,0.01 16.93,0c0.25,0 0.37,0.08 0.46,0.31c0.24,0.68 0.51,1.35 0.78,2.02c0.21,0.52 0.63,0.73 1.09,0.57c0.46,-0.17 0.65,-0.63 0.44,-1.18c-1.31,-3.36 -2.61,-6.73 -3.92,-10.1c-0.06,-0.15 -0.11,-0.3 -0.13,-0.35c0.83,-0.53 1.68,-0.94 2.38,-1.53c1.7,-1.39 2.54,-3.24 2.55,-5.44c0.01,-4.82 0.05,-9.65 -0.01,-14.47c-0.04,-3.02 -1.55,-5.18 -4.24,-6.51c-0.23,-0.12 -0.43,-0.1 -0.67,0c-0.91,0.41 -1.75,0.24 -2.52,-0.38c-0.16,-0.13 -0.38,-0.21 -0.59,-0.23c-0.4,-0.03 -0.8,-0.01 -1.2,-0.01c-0.62,0.01 -1.17,0 -1.73,0.46c-0.8,0.66 -1.97,0.47 -2.78,-0.21c-0.16,-0.14 -0.4,-0.23 -0.61,-0.23c-0.67,-0.03 -1.34,-0.03 -2,-0.01c-0.18,0.01 -0.38,0.09 -0.51,0.2c-0.79,0.66 -1.65,0.81 -2.61,0.41c-0.16,-0.07 -0.41,-0.08 -0.57,-0.01c-2.68,1.29 -4.23,3.42 -4.28,6.39c-0.08,4.92 -0.04,9.85 -0.01,14.77c0.01,2.86 1.9,5.49 4.59,6.52c0.14,0.06 0.29,0.11 0.48,0.19l0,0zm6.8,-13.86c-3.02,0 -6.04,0 -9.06,0c-0.84,0 -1.35,-0.51 -1.35,-1.35c-0.01,-0.94 -0.01,-1.89 0,-2.84c0.01,-2.59 1.97,-4.62 4.57,-4.64c3.87,-0.03 7.74,-0.03 11.6,0c2.6,0.02 4.55,2.05 4.57,4.65c0.01,0.89 0.01,1.78 0,2.67c0,1.04 -0.46,1.51 -1.49,1.51c-2.95,0 -5.89,0 -8.84,0l0,0zm-7.8,21.02c0.37,-0.95 0.71,-1.86 1.08,-2.75c0.03,-0.09 0.22,-0.16 0.33,-0.16c4.49,0 8.98,0 13.47,0.01c0.13,0 0.32,0.14 0.38,0.26c0.27,0.62 0.5,1.26 0.75,1.9c0.09,0.23 0.17,0.47 0.27,0.74l-16.29,0l0.01,0zm1.78,-4.59c0.26,-0.68 0.52,-1.31 0.74,-1.95c0.09,-0.26 0.21,-0.33 0.47,-0.33c3.32,0.01 6.64,0.01 9.97,0.01c0.23,0 0.46,0 0.68,0c0.29,0.76 0.57,1.5 0.87,2.27l-12.73,0l0,0zm0.03,-5.66c-1.64,0.01 -2.95,-1.3 -2.95,-2.93c0,-1.61 1.31,-2.92 2.91,-2.93c1.61,0 2.94,1.3 2.96,2.9c0.02,1.62 -1.3,2.96 -2.92,2.96zm9.76,-2.91c0,-1.64 1.3,-2.95 2.93,-2.95c1.6,0 2.93,1.32 2.93,2.92c0.01,1.62 -1.31,2.94 -2.94,2.94c-1.61,0 -2.92,-1.29 -2.92,-2.91z" fill="white" id="svg_4"/>
   <path d="m52.93,31.32c0,-3.74 -0.01,-7.48 0.01,-11.22c0.01,-0.83 -0.16,-1.6 -0.48,-2.35c-1.36,-3.14 -3.71,-5.32 -6.72,-6.85c-2.29,-1.16 -4.75,-1.78 -7.29,-2.09c-3.54,-0.43 -7.08,-0.37 -10.59,0.32c-3.45,0.69 -6.61,2.01 -9.18,4.51c-1.47,1.42 -2.57,3.09 -3.18,5.07c-0.08,0.28 -0.13,0.6 -0.13,0.9c-0.01,7.83 -0.01,15.66 -0.01,23.49c0,0.12 0,0.25 0.01,0.37c0.05,0.38 0.35,0.66 0.73,0.7c0.38,0.03 0.73,-0.17 0.85,-0.53c0.05,-0.18 0.06,-0.38 0.06,-0.58c0.01,-7.74 0,-15.49 0.01,-23.24c0,-0.99 0.48,-1.82 0.96,-2.63c1.58,-2.7 4,-4.38 6.87,-5.48c2.51,-0.97 5.14,-1.38 7.82,-1.48c3.5,-0.14 6.95,0.14 10.29,1.3c2.86,1 5.32,2.57 7.04,5.14c0.31,0.47 0.58,0.98 0.83,1.49c0.33,0.67 0.47,1.37 0.47,2.13c-0.02,7.57 -0.01,15.13 -0.01,22.7c0,0.21 0,0.42 0.05,0.62c0.1,0.37 0.48,0.6 0.87,0.56c0.38,-0.04 0.67,-0.33 0.71,-0.71c0.02,-0.15 0.01,-0.3 0.01,-0.46c0,-3.89 0,-7.79 0,-11.68l0,0z" fill="white" id="svg_5"/>
   <path d="m41.93,16.66c-0.02,-0.85 -0.69,-1.47 -1.54,-1.45c-0.82,0.02 -1.45,0.7 -1.42,1.54c0.02,0.81 0.71,1.47 1.52,1.44c0.82,-0.03 1.46,-0.7 1.44,-1.53z" fill="white" id="svg_6"/>
   <path d="m34.14,15.21c-0.83,0.01 -1.48,0.67 -1.48,1.49c0,0.81 0.67,1.49 1.48,1.49c0.83,0.01 1.52,-0.69 1.5,-1.52c-0.01,-0.82 -0.68,-1.46 -1.5,-1.46z" fill="white" id="svg_7"/>
   <path d="m26.37,16.68c-0.01,0.83 0.64,1.5 1.46,1.51c0.81,0.01 1.49,-0.65 1.51,-1.46c0.02,-0.84 -0.65,-1.52 -1.49,-1.52c-0.83,0 -1.47,0.64 -1.48,1.47z" fill="white" id="svg_8"/>
   <path d="m25.79,40.7c0.01,1.14 0.93,2.05 2.07,2.05c1.14,-0.01 2.06,-0.93 2.06,-2.07c0,-1.16 -0.95,-2.1 -2.1,-2.08c-1.14,0.02 -2.04,0.95 -2.03,2.1l0,0z" fill="white" id="svg_9"/>
   <path d="m38.49,40.68c0,1.15 0.92,2.07 2.06,2.07c1.14,0 2.08,-0.93 2.09,-2.06c0.01,-1.14 -0.96,-2.1 -2.1,-2.09c-1.14,0.01 -2.06,0.94 -2.05,2.08z" fill="white" id="svg_10"/>
  </g>
 </g>
</svg>
